public/icons/unchecked-checkbox.svg

<svg width="18" height="19" viewBox="0 0 18 19" fill="none" xmlns="http://www.w3.org/2000/svg">
<path fill-rule="evenodd" clip-rule="evenodd" d="M5.25 2.75C3.59315 2.75 2.25 4.09315 2.25 5.75V13.25C2.25 14.9069 3.59315 16.25 5.25 16.25H12.75C14.4069 16.25 15.75 14.9069 15.75 13.25V5.75C15.75 4.09315 14.4069 2.75 12.75 2.75H5.25ZM3.75 5.75C3.75 4.92157 4.42157 4.25 5.25 4.25H12.75C13.5784 4.25 14.25 4.92157 14.25 5.75V13.25C14.25 14.0784 13.5784 14.75 12.75 14.75H5.25C4.42157 14.75 3.75 14.0784 3.75 13.25V5.75Z" fill="#98A2B3"/>
</svg>

<svg xmlns="http://www.w3.org/2000/svg" width="18" height="19" fill="none"><path fill="#98A2B3" fill-rule="evenodd" d="M5.25 2.75a3 3 0 0 0-3 3v7.5a3 3 0 0 0 3 3h7.5a3 3 0 0 0 3-3v-7.5a3 3 0 0 0-3-3zm-1.5 3a1.5 1.5 0 0 1 1.5-1.5h7.5a1.5 1.5 0 0 1 1.5 1.5v7.5a1.5 1.5 0 0 1-1.5 1.5h-7.5a1.5 1.5 0 0 1-1.5-1.5z" clip-rule="evenodd"/></svg>
